packages/kaspersky-hexa-ui-icons/src/iconsSVGs/48/Router.svg

<svg width="48" height="48" viewBox="0 0 48 48" fill="none" xmlns="http://www.w3.org/2000/svg">
<path fill-rule="evenodd" clip-rule="evenodd" d="M48 27H0V45H4V48H6V45H42V48H44V45H48V27ZM46 29V39H2V29H46ZM2 43V41H46V43H2ZM42 35H40V33H42V35ZM38 35H36V33H38V35ZM34 35H32V33H34V35ZM28.48 15.62C25.8775 13.4359 22.0825 13.4359 19.48 15.62L18.2 14.09C21.537 11.3105 26.383 11.3105 29.72 14.09L28.48 15.62ZM32.32 11.01C27.4998 6.99515 20.5002 6.99515 15.68 11.01L14.4 9.47999C19.9617 4.84748 28.0383 4.84748 33.6 9.47999L32.32 11.01ZM11.84 6.40999L10.56 4.86999C18.3464 -1.61552 29.6536 -1.61552 37.44 4.86999L36.16 6.40999C29.1152 0.542151 18.8848 0.542151 11.84 6.40999ZM25.92 18.7L26.68 19.34L24 22.56L21.32 19.34L22.08 18.7C23.202 17.8007 24.798 17.8007 25.92 18.7Z"  fill="currentColor"/>
</svg>

<svg xmlns="http://www.w3.org/2000/svg" width="48" height="48" fill="none" viewBox="0 0 48 48"><path fill="currentColor" fill-rule="evenodd" d="M48 27H0v18h4v3h2v-3h36v3h2v-3h4zm-2 2v10H2V29zM2 43v-2h44v2zm40-8h-2v-2h2zm-4 0h-2v-2h2zm-4 0h-2v-2h2zm-5.52-19.38c-2.6025-2.1841-6.3975-2.1841-9 0l-1.28-1.53c3.337-2.7795 8.183-2.7795 11.52 0zm3.84-4.61c-4.8202-4.0148-11.8198-4.0148-16.64 0L14.4 9.48c5.5617-4.6325 13.6383-4.6325 19.2 0zm-20.48-4.6-1.28-1.54c7.7864-6.4855 19.0936-6.4855 26.88 0l-1.28 1.54C29.1152.5422 18.8848.5422 11.84 6.41M25.92 18.7l.76.64L24 22.56l-2.68-3.22.76-.64c1.122-.8993 2.718-.8993 3.84 0" clip-rule="evenodd"/></svg>
